src/images_karasa_jaga_svg/starmath/res/dist11.svg

<svg height="96" viewBox="0 0 96 96" width="96" xmlns="http://www.w3.org/2000/svg" xmlns:xlink="http://www.w3.org/1999/xlink"><linearGradient id="a" gradientTransform="matrix(-.12499998 .0000613 -.0000613 -.12499998 39.005334 70.000605)" gradientUnits="userSpaceOnUse" x1="113.15723" x2="39.268185" xlink:href="#b" y1="25.786163" y2="25.786163"/><linearGradient id="b"><stop offset="0" stop-color="#0968ef"/><stop offset="1" stop-color="#aecffc"/></linearGradient><linearGradient id="c" gradientTransform="matrix(.12499998 .0000613 .0000613 -.12499998 21.020042 69.993905)" gradientUnits="userSpaceOnUse" x1="113.15723" x2="39.268185" xlink:href="#b" y1="25.786163" y2="25.786163"/><linearGradient id="d" gradientUnits="userSpaceOnUse" x1="23" x2="23" xlink:href="#b" y1="64" y2="57"/><linearGradient id="e" gradientUnits="userSpaceOnUse" x1="36" x2="36.5" xlink:href="#b" y1="63.5" y2="55"/><path d="m0 0h96v96h-96z" fill="#fff"/><rect fill="url(#d)" height="10" ry=".5" width="1" x="23" y="59"/><path d="m24.003619 66.507963 3.001226 2.498528.49661-.4971-.97558-1.502666 3.474625-.006725-.0005-1-3.474624.0067.974127-1.478466-.497111-.52177z" fill="url(#a)" stroke-width=".125"/><rect fill="url(#e)" height="11" ry=".5" width="1" x="36" y="58"/><path d="m36.021757 66.501263-3.001226 2.498528-.49661-.4971.97558-1.502666-3.500001-.000025.0005-1h3.5l-.974127-1.478466.497111-.52177z" fill="url(#c)" stroke-width=".125"/><text font-family="sans-serif" font-size="44.22995" letter-spacing="0" stroke-width="1.105749" word-spacing="0" x="2.880633" y="58.512794"><tspan font-family="FreeSerif" font-style="italic" stroke-width="1.105749" x="2.880633" y="58.512794">a</tspan></text><text font-family="sans-serif" font-size="44.22995" letter-spacing="0" stroke-width="1.105749" word-spacing="0" x="72.88063" y="58.512794"><tspan font-family="FreeSerif" font-style="italic" stroke-width="1.105749" x="72.88063" y="58.512794">b</tspan></text><path d="m47 33v10h-10v3h10v10h3v-10h10v-3h-10v-10z"/></svg>

<?xml version="1.0" encoding="UTF-8" standalone="no"?>
<!-- Created with Inkscape (http://www.inkscape.org/) -->

<svg
   xmlns:dc="http://purl.org/dc/elements/1.1/"
   xmlns:cc="http://creativecommons.org/ns#"
   xmlns:rdf="http://www.w3.org/1999/02/22-rdf-syntax-ns#"
   xmlns:svg="http://www.w3.org/2000/svg"
   xmlns="http://www.w3.org/2000/svg"
   xmlns:xlink="http://www.w3.org/1999/xlink"
   xmlns:sodipodi="http://sodipodi.sourceforge.net/DTD/sodipodi-0.dtd"
   xmlns:inkscape="http://www.inkscape.org/namespaces/inkscape"
   version="1.1"
   id="svg2"
   width="96"
   height="96"
   viewBox="0 0 96 96"
   sodipodi:docname="dist11.svg"
   inkscape:version="0.92.3 (2405546, 2018-03-11)"
   inkscape:export-filename="/home/rizmut/Dokumen/Rizmut/Github/libreoffice-style-karasa-jaga/build/next/starmath/res/dist11.png"
   inkscape:export-xdpi="96"
   inkscape:export-ydpi="96">
  <metadata
     id="metadata8">
    <rdf:RDF>
      <cc:Work
         rdf:about="">
        <dc:format>image/svg+xml</dc:format>
        <dc:type
           rdf:resource="http://purl.org/dc/dcmitype/StillImage" />
        <dc:title></dc:title>
      </cc:Work>
    </rdf:RDF>
  </metadata>
  <defs
     id="defs6">
    <linearGradient
       id="j"
       gradientTransform="matrix(-0.12499998,6.1304688e-5,-6.1304688e-5,-0.12499998,39.005334,70.000605)"
       gradientUnits="userSpaceOnUse"
       x1="113.15723"
       x2="39.268185"
       xlink:href="#d"
       y1="25.786163"
       y2="25.786163" />
    <linearGradient
       id="d">
      <stop
         offset="0"
         stop-color="#0968ef"
         id="stop1228" />
      <stop
         offset="1"
         stop-color="#aecffc"
         id="stop1230" />
    </linearGradient>
    <linearGradient
       inkscape:collect="always"
       xlink:href="#d"
       id="linearGradient1312"
       gradientUnits="userSpaceOnUse"
       gradientTransform="matrix(0.12499998,6.1304688e-5,6.1304688e-5,-0.12499998,21.020042,69.993905)"
       x1="113.15723"
       y1="25.786163"
       x2="39.268185"
       y2="25.786163" />
    <linearGradient
       inkscape:collect="always"
       xlink:href="#d"
       id="linearGradient1320"
       x1="23"
       y1="64"
       x2="23"
       y2="57"
       gradientUnits="userSpaceOnUse" />
    <linearGradient
       inkscape:collect="always"
       xlink:href="#d"
       id="linearGradient1322"
       x1="36"
       y1="63.5"
       x2="36.5"
       y2="55"
       gradientUnits="userSpaceOnUse" />
  </defs>
  <sodipodi:namedview
     pagecolor="#ffffff"
     bordercolor="#666666"
     borderopacity="1"
     objecttolerance="10"
     gridtolerance="10"
     guidetolerance="10"
     inkscape:pageopacity="0"
     inkscape:pageshadow="2"
     inkscape:window-width="1366"
     inkscape:window-height="714"
     id="namedview4"
     showgrid="true"
     inkscape:zoom="9.8333333"
     inkscape:cx="36.39952"
     inkscape:cy="34.177701"
     inkscape:window-x="0"
     inkscape:window-y="28"
     inkscape:window-maximized="1"
     inkscape:current-layer="svg2">
    <inkscape:grid
       type="xygrid"
       id="grid12" />
  </sodipodi:namedview>
  <rect
     style="opacity:1;fill:#ffffff;fill-opacity:1;stroke:none;stroke-width:0.5;stroke-miterlimit:4;stroke-dasharray:none;stroke-opacity:1"
     id="rect849"
     width="96"
     height="96"
     x="0"
     y="0" />
  <rect
     style="opacity:1;fill:url(#linearGradient1320);fill-opacity:1;stroke:none;stroke-width:0.5;stroke-miterlimit:4;stroke-dasharray:none;stroke-opacity:1"
     id="rect14"
     width="1"
     height="10"
     x="23"
     y="59"
     ry="0.5" />
  <path
     inkscape:connector-curvature="0"
     style="fill:url(#j);stroke-width:0.125"
     d="m 24.003619,66.507963 3.001226,2.498528 0.49661,-0.4971 -0.97558,-1.502666 L 30.0005,67 30,66 l -3.474624,0.0067 0.974127,-1.478466 -0.497111,-0.52177 z"
     id="path1269"
     sodipodi:nodetypes="cccccccccc" />
  <rect
     style="opacity:1;fill:url(#linearGradient1322);fill-opacity:1;stroke:none;stroke-width:0.5;stroke-miterlimit:4;stroke-dasharray:none;stroke-opacity:1"
     id="rect16"
     width="1"
     height="11"
     x="36"
     y="58"
     ry="0.5" />
  <path
     id="path1310"
     d="m 36.021757,66.501263 -3.001226,2.498528 -0.49661,-0.4971 0.97558,-1.502666 L 29.9995,67 30,66 h 3.5 l -0.974127,-1.478466 0.497111,-0.52177 z"
     style="fill:url(#linearGradient1312);stroke-width:0.125"
     inkscape:connector-curvature="0"
     sodipodi:nodetypes="cccccccccc" />
  <text
     xml:space="preserve"
     style="font-style:normal;font-weight:normal;font-size:44.22994995px;line-height:1.25;font-family:sans-serif;letter-spacing:0px;word-spacing:0px;fill:#000000;fill-opacity:1;stroke:none;stroke-width:1.10574877"
     x="2.8806329"
     y="58.512794"
     id="text838"><tspan
       sodipodi:role="line"
       id="tspan836"
       x="2.8806329"
       y="58.512794"
       style="font-style:italic;font-variant:normal;font-weight:normal;font-stretch:normal;font-family:FreeSerif;-inkscape-font-specification:'FreeSerif Italic';stroke-width:1.10574877">a</tspan></text>
  <text
     id="text842"
     y="58.512794"
     x="72.88063"
     style="font-style:normal;font-weight:normal;font-size:44.22994995px;line-height:1.25;font-family:sans-serif;letter-spacing:0px;word-spacing:0px;fill:#000000;fill-opacity:1;stroke:none;stroke-width:1.10574877"
     xml:space="preserve"><tspan
       style="font-style:italic;font-variant:normal;font-weight:normal;font-stretch:normal;font-family:FreeSerif;-inkscape-font-specification:'FreeSerif Italic';stroke-width:1.10574877"
       y="58.512794"
       x="72.88063"
       id="tspan840"
       sodipodi:role="line">b</tspan></text>
  <path
     style="opacity:1;fill:#000000;fill-opacity:1;stroke:none;stroke-width:0.5;stroke-miterlimit:4;stroke-dasharray:none;stroke-opacity:1"
     d="M 47 33 L 47 43 L 37 43 L 37 46 L 47 46 L 47 56 L 50 56 L 50 46 L 60 46 L 60 43 L 50 43 L 50 33 L 47 33 z "
     id="rect844" />
</svg>
